X:182
T:The Dublin Lasses
C:McFadden
M:C|
L:1/8
K:F
"F"c(F ~F2) cFdF|cFFG "C"AG G2|"F"c(F ~F2) cFdF|"C"GBAG "Dm"F(D D2)|\
"F"cE ~F2 cFdF|cFFG "C"AG G2|"F"FGAc (3ded cA|"C"GBAG "Dm"FD D2||
"F"fefg "Dm"agag|"F"fefg "Dm"adde|"F"fefg a2 "Dm"ag|\
fdec Ad d2|"F"fefg "Dm"agag|"F"fefg "Dm"addf|"F"afge f2 ed|"C"cAGB "Dm"AD D2|]
